X: 69
T:Polka #1
M:2/4
L:1/8
S:Kevin Burke
R:polka
K:D
d>B|AF DF|EF DF|AF AB|e2 d>B|AF DF|EF DF|AF AB|d2  :|
|dA|d2 fd|ef dB|AF AB|e2 dB |d2 fd|ef dB|AF AB|d2 dA |
d2 fd|ef dB|AF AB|e2 dB |df f/g/f/g/|af fg|af ef|d2  ||
